styles/1/Numix/22/places/orange-folder-steam.svg

<?xml version="1.0" encoding="UTF-8" standalone="no"?>
<!-- Created with Inkscape (http://www.inkscape.org/) -->

<svg
   xmlns:dc="http://purl.org/dc/elements/1.1/"
   xmlns:cc="http://creativecommons.org/ns#"
   xmlns:rdf="http://www.w3.org/1999/02/22-rdf-syntax-ns#"
   xmlns:svg="http://www.w3.org/2000/svg"
   xmlns="http://www.w3.org/2000/svg"
   xmlns:sodipodi="http://sodipodi.sourceforge.net/DTD/sodipodi-0.dtd"
   xmlns:inkscape="http://www.inkscape.org/namespaces/inkscape"
   width="22"
   height="22"
   id="svg2"
   version="1.1"
   inkscape:version="0.91 r"
   sodipodi:docname="orange-folder-steam.svg"
   inkscape:export-filename="/media/Data/Main/Visuals/Icons/Numix/Desktop/repos/numix-wiki/Gjorgi/Numix-folders/48/New/folder-144.png"
   inkscape:export-xdpi="270"
   inkscape:export-ydpi="270">
  <defs
     id="defs4" />
  <sodipodi:namedview
     id="base"
     pagecolor="#ffffff"
     bordercolor="#666666"
     borderopacity="1.0"
     inkscape:pageopacity="0.0"
     inkscape:pageshadow="2"
     inkscape:zoom="22.603171"
     inkscape:cx="9.8118951"
     inkscape:cy="11.377482"
     inkscape:document-units="px"
     inkscape:current-layer="layer1"
     showgrid="true"
     inkscape:window-width="1280"
     inkscape:window-height="998"
     inkscape:window-x="0"
     inkscape:window-y="0"
     inkscape:window-maximized="1"
     showguides="true"
     inkscape:guide-bbox="true">
    <inkscape:grid
       type="xygrid"
       id="grid2985"
       empspacing="5"
       visible="true"
       enabled="true"
       snapvisiblegridlinesonly="true" />
  </sodipodi:namedview>
  <metadata
     id="metadata7">
    <rdf:RDF>
      <cc:Work
         rdf:about="">
        <dc:format>image/svg+xml</dc:format>
        <dc:type
           rdf:resource="http://purl.org/dc/dcmitype/StillImage" />
        <dc:title />
      </cc:Work>
    </rdf:RDF>
  </metadata>
  <g
     inkscape:label="Layer 1"
     inkscape:groupmode="layer"
     id="layer1"
     transform="translate(0,-1030.3622)">
    <path
       style="font-size:medium;font-style:normal;font-variant:normal;font-weight:normal;font-stretch:normal;text-indent:0;text-align:start;text-decoration:none;line-height:normal;letter-spacing:normal;word-spacing:normal;text-transform:none;direction:ltr;block-progression:tb;writing-mode:lr-tb;text-anchor:start;baseline-shift:baseline;color:#000000;fill:#f57c00;fill-opacity:1;fill-rule:nonzero;stroke:none;stroke-width:1.52408636;marker:none;visibility:visible;display:inline;overflow:visible;enable-background:accumulate;font-family:Sans;-inkscape-font-specification:Sans"
       d="M 1.625 3 C 1.2775698 3.063 0.99985296 3.3968 1 3.75 L 1 18.25 C 1.00617 18.641 1.3590206 18.9938 1.75 19 L 20.25 19 C 20.640979 18.99 20.99383 18.641 21 18.25 L 21 5.8125 C 20.9938 5.4215 20.640979 5.0062 20.25 5 L 13 5 L 13 3.75 C 12.9938 3.359 12.640979 3.0062 12.25 3 L 1.625 3 z M 14.3125 6.84375 C 15.794815 6.84375 17 8.03625 17 9.46875 C 17 10.53325 16.326211 11.43875 15.375 11.84375 C 15.36492 11.84775 15.35389 11.865 15.34375 11.875 L 13.9375 14.3125 L 13.90625 14.3125 C 14.158916 14.6277 14.3125 15.0106 14.3125 15.4375 C 14.3125 16.4621 13.434677 17.28125 12.375 17.28125 C 11.334075 17.28125 10.49656 16.47045 10.46875 15.46875 L 7.75 14.3125 C 7.4284449 14.5446 7.0229192 14.6875 6.59375 14.6875 C 5.5354958 14.6875 4.6875 13.8371 4.6875 12.8125 C 4.6875 11.7893 5.5359701 10.9375 6.59375 10.9375 C 7.6534272 10.9375 8.53125 11.7898 8.53125 12.8125 L 11.21875 13.96875 C 11.448152 13.79575 11.706047 13.65275 12 13.59375 L 12 10.78125 C 11.761348 10.39235 11.625 9.95005 11.625 9.46875 C 11.625 8.03485 12.828288 6.84375 14.3125 6.84375 z M 14.3125 7.71875 C 13.314013 7.71875 12.53125 8.50535 12.53125 9.46875 C 12.53125 10.43405 13.314013 11.1875 14.3125 11.1875 C 15.30909 11.1875 16.09375 10.43405 16.09375 9.46875 C 16.09375 8.50535 15.309564 7.71875 14.3125 7.71875 z M 14.3125 8.34375 C 14.951912 8.34375 15.46875 8.85015 15.46875 9.46875 C 15.46875 10.08585 14.951912 10.5625 14.3125 10.5625 C 13.674986 10.5625 13.15625 10.08535 13.15625 9.46875 C 13.15625 8.84975 13.674986 8.34375 14.3125 8.34375 z M 6.59375 11.6875 C 5.8229463 11.6875 5.4375 12.0677 5.4375 12.8125 C 5.4375 13.5591 5.8229463 13.9375 6.59375 13.9375 C 6.6902783 13.9375 6.790551 13.91825 6.875 13.90625 L 6.375 13.6875 C 5.9376578 13.5096 5.7207827 13.01645 5.90625 12.59375 C 6.0917172 12.17015 6.5939079 11.97645 7.03125 12.15625 L 7.71875 12.4375 C 7.6045514 11.9378 7.2266831 11.6875 6.59375 11.6875 z M 12.375 14.1875 C 12.205281 14.1875 12.05394 14.22425 11.90625 14.28125 L 12.75 14.625 C 13.187342 14.8029 13.404217 15.29615 13.21875 15.71875 C 13.033283 16.14355 12.499842 16.3672 12.0625 16.1875 L 11.15625 15.78125 C 11.31634 16.28835 11.795673 16.65625 12.375 16.65625 C 13.088407 16.65625 13.65625 16.1267 13.65625 15.4375 C 13.65625 14.7483 13.088407 14.1875 12.375 14.1875 z "
       transform="translate(0,1030.3622)"
       id="path3912" />
  </g>
</svg>

<!-- Created with Inkscape (http://www.inkscape.org/) -->
<svg xmlns="http://www.w3.org/2000/svg" viewBox="0 0 22 22">
 <g transform="translate(0,-1030.3622)">
  <path d="m 1.625 3 c -0.347 0.063 -0.625 0.397 -0.625 0.75 l 0 14.5 c 0.006 0.391 0.359 0.744 0.75 0.75 l 18.5 0 c 0.391 -0.01 0.744 -0.359 0.75 -0.75 l 0 -12.438 c -0.006 -0.391 -0.359 -0.806 -0.75 -0.813 l -7.25 0 l 0 -1.25 c -0.006 -0.391 -0.359 -0.744 -0.75 -0.75 l -10.625 0 z m 12.688 3.844 c 1.482 0 2.688 1.193 2.688 2.625 c 0 1.065 -0.674 1.97 -1.625 2.375 c -0.01 0.004 -0.021 0.021 -0.031 0.031 l -1.406 2.438 l -0.031 0 c 0.253 0.315 0.406 0.698 0.406 1.125 c 0 1.025 -0.878 1.844 -1.938 1.844 c -1.041 0 -1.878 -0.811 -1.906 -1.813 l -2.719 -1.156 c -0.322 0.232 -0.727 0.375 -1.156 0.375 c -1.058 0 -1.906 -0.85 -1.906 -1.875 c 0 -1.023 0.848 -1.875 1.906 -1.875 c 1.06 0 1.938 0.852 1.938 1.875 l 2.688 1.156 c 0.229 -0.173 0.487 -0.316 0.781 -0.375 l 0 -2.813 c -0.239 -0.389 -0.375 -0.831 -0.375 -1.313 c 0 -1.434 1.203 -2.625 2.688 -2.625 z m 0 0.875 c -0.998 0 -1.781 0.787 -1.781 1.75 c 0 0.965 0.783 1.719 1.781 1.719 c 0.997 0 1.781 -0.753 1.781 -1.719 c 0 -0.963 -0.784 -1.75 -1.781 -1.75 z m 0 0.625 c 0.639 0 1.156 0.506 1.156 1.125 c 0 0.617 -0.517 1.094 -1.156 1.094 c -0.638 0 -1.156 -0.477 -1.156 -1.094 c 0 -0.619 0.519 -1.125 1.156 -1.125 z m -7.719 3.344 c -0.771 0 -1.156 0.38 -1.156 1.125 c 0 0.747 0.385 1.125 1.156 1.125 c 0.097 0 0.197 -0.019 0.281 -0.031 l -0.5 -0.219 c -0.437 -0.178 -0.654 -0.671 -0.469 -1.094 c 0.185 -0.424 0.688 -0.617 1.125 -0.438 l 0.688 0.281 c -0.114 -0.5 -0.492 -0.75 -1.125 -0.75 z m 5.781 2.5 c -0.17 0 -0.321 0.037 -0.469 0.094 l 0.844 0.344 c 0.437 0.178 0.654 0.671 0.469 1.094 c -0.185 0.425 -0.719 0.648 -1.156 0.469 l -0.906 -0.406 c 0.16 0.507 0.639 0.875 1.219 0.875 c 0.713 0 1.281 -0.53 1.281 -1.219 c 0 -0.689 -0.568 -1.25 -1.281 -1.25 z" transform="translate(0,1030.3622)" style="visibility:visible;fill:#f57c00;fill-opacity:1;stroke:none;display:inline;color:#000;fill-rule:nonzero"/>
 </g>
</svg>
